tenants/businesswise/icons/channel_twitter.svg

<svg fill="none" height="32" viewBox="0 0 32 32" width="32" xmlns="http://www.w3.org/2000/svg" xmlns:xlink="http://www.w3.org/1999/xlink"><clipPath id="a"><path d="m0 0h32v32h-32z"/></clipPath><g clip-path="url(#a)" fill="#000"><path clip-rule="evenodd" d="m16 1.88235c-7.79696 0-14.11765 6.32069-14.11765 14.11765 0 7.797 6.32069 14.1176 14.11765 14.1176 7.797 0 14.1176-6.3206 14.1176-14.1176 0-7.79696-6.3206-14.11765-14.1176-14.11765zm-16 14.11765c0-8.83656 7.16344-16 16-16 8.8366 0 16 7.16344 16 16 0 8.8366-7.1634 16-16 16-8.83656 0-16-7.1634-16-16z" fill-rule="evenodd"/><path d="m17.5158 14.7757 5.9524-6.7757h-1.41l-5.1707 5.882-4.1267-5.882h-4.7608l6.2417 8.8955-6.2417 7.1045h1.41002l5.45678-6.213 4.359 6.213h4.7609m-14.06777-14.95873h2.16617l9.972 13.96863h-2.1667"/></g></svg>

<svg width="32" height="32" viewBox="0 0 32 32" fill="none" xmlns="http://www.w3.org/2000/svg">
<g clip-path="url(#clip0_2137_28206)">
<path fill-rule="evenodd" clip-rule="evenodd" d="M16 1.88235C8.20304 1.88235 1.88235 8.20304 1.88235 16C1.88235 23.797 8.20304 30.1176 16 30.1176C23.797 30.1176 30.1176 23.797 30.1176 16C30.1176 8.20304 23.797 1.88235 16 1.88235ZM0 16C0 7.16344 7.16344 0 16 0C24.8366 0 32 7.16344 32 16C32 24.8366 24.8366 32 16 32C7.16344 32 0 24.8366 0 16Z" fill="black"/>
<path d="M17.5158 14.7757L23.4682 8H22.0582L16.8875 13.882L12.7608 8H8L14.2417 16.8955L8 24H9.41002L14.8668 17.787L19.2258 24H23.9867M9.91893 9.04127H12.0851L22.0571 23.0099H19.8904" fill="black"/>
</g>
<defs>
<clipPath id="clip0_2137_28206">
<rect width="32" height="32" fill="white"/>
</clipPath>
</defs>
</svg>
